X:2534
T:Polska från Småland
T:Svenska Folkdansar H4 nr 12
O:Småland
B:Traditioner av Svenska Folkdansar Häfte 4, nr 12
R:Polska
Z:Nils L
L:1/8
M:3/4
L:1/8
K:Eb
(EF GA Be) | {f/}ed/e/ fe B2 | c2 cA TA2 | B2 BG TG2 |
A2 F2 ED | (D2 E2) z2 :: e2 B2 z2 | (cB AG FE) | e2 B2 z2 | (cB AG FE) | 
(e>f) e GFE | {G/}FE/F/ E4 :|
(:musicend:)
(:music:)
